X: 72
T: Miss Sally Hunter of Thurston's Jig
%R: jig
B: Urbani & Liston "A Selection of Scotch, English Irish, and Foreign Airs", Edinburgh 1800, p.30 #2
F: http://www.vwml.org/browse/browse-collections-dance-tune-books/browse-urbani1800
Z: 2014 John Chambers <jc:trillian.mit.edu>
M: 6/8
L: 1/8
K: D
A |\
DFA Td2A | TB2A Td2A | Bcd egf | efd cBA |\
DFA d2A | B2A Bcd | egf edc | Td3 D2 :|
g |\
fed Tg2e | a2f b2g | (Tfef) def | efd Tc>BA |\
fed g2e | a2f b2g | Tfga Adc | Td3 d2 g |
fdf geg | afa bgb | afd Bcd | efd cBA |\
AFA Td2A | B2A Bcd | egf edc | Td3 D2 |]
